X:342
T:The Dutch
S:Bruce & Emmett's Drummers and Fifers Guide (1862), p. 34
M:3/8
L:1/16
Q:Allegro
K:D
%%MIDI program 72
%%MIDI transpose 8
%%MIDI ratio 3 1
(3(dcB)|A2F2A2|{e}dcded2|ede|{g}fefga2|A2F2A2|{e}dcded2|e3de2|f4::
de|f2fedc|B3Bcd|e2edcB|A4Bc|dAFAdf|ecAceg|f3age|d4:||
